X: 29532
T: No More Wine
R: polka
M: 2/4
K: Gmajor
|:GB/c/ dg|ed dA|B>c BG|AG EA|
GB/c/ dg|ed dg|e2 ed|BA AB:|
|:d2 dA|BA G2|dA BA|GE Ef|
[1 g2 gb|ag gd|e2 ed|BA AB:|
[2 g2 fg|ed d2|cd/e/ gd|BA A2||

